X:128
T:B128-  Duke upon Duke
Q:1/4=120
L:1/4
M:2/4
K:C
(c/4B/4)|c/2G/2G/2e/2|e/2d/2d/2g/2|g/2c/2f/2e/2|d3/2||G/2|\
A/2(d/4c/4) B/2e/2|c/2(f/4e/4) d/2g/2|g/2e/2d/2B/2|\
(c/2B/4A/4 G/2)c/2|c/2(E/4F/4) E/2D/2|C3/2|]



